core/assets/icons/send.svg

<svg width="24" height="24" viewBox="0 0 24 24" xmlns="http://www.w3.org/2000/svg"><g id="send" clip-path="url(#clip0_427_6798)"><g id="Frame"><path id="Vector" d="M1.12992 10.0405C0.60792 9.8665 0.60292 9.5855 1.13992 9.4065L20.2269 3.0445C20.7559 2.8685 21.0589 3.1645 20.9109 3.6825L15.4569 22.7685C15.3069 23.2975 15.0019 23.3155 14.7779 22.8135L11.1839 14.7255L17.1839 6.7255L9.18392 12.7255L1.12992 10.0405V10.0405Z"/></g></g><defs><clipPath id="clip0_427_6798"><rect width="24" height="24"/></clipPath></defs></svg>

<svg xmlns="http://www.w3.org/2000/svg" width="24" height="24" fill="none"><g clip-path="url(#a)"><path fill="#191C22" d="M1.13 10.04c-.522-.173-.527-.454.01-.633l19.087-6.362c.529-.176.832.12.684.638l-5.454 19.085c-.15.53-.455.547-.68.046l-3.593-8.088 6-8-8 6L1.13 10.04Z"/></g><defs><clipPath id="a"><path fill="#fff" d="M0 0h24v24H0z"/></clipPath></defs></svg>
